icons/1_Primary/SendCutSend.svg

<svg width="1024" height="1024" viewBox="0 0 1024 1024" fill="none" xmlns="http://www.w3.org/2000/svg">
<g clip-path="url(#clip0_2_3432)">
<path d="M512 1024C794.77 1024 1024 794.77 1024 512C1024 229.23 794.77 0 512 0C229.23 0 0 229.23 0 512C0 794.77 229.23 1024 512 1024Z" fill="#FF837D"/>
<path d="M520.32 468.37C514.428 468.37 508.668 466.623 503.769 463.35C498.871 460.076 495.052 455.424 492.798 449.98C490.543 444.537 489.953 438.547 491.102 432.768C492.252 426.99 495.089 421.682 499.255 417.515C503.421 413.349 508.729 410.512 514.508 409.363C520.287 408.213 526.277 408.803 531.72 411.058C537.163 413.313 541.816 417.131 545.089 422.03C548.363 426.929 550.11 432.688 550.11 438.58C550.111 442.493 549.342 446.367 547.845 449.982C546.348 453.597 544.154 456.881 541.388 459.648C538.621 462.414 535.336 464.609 531.722 466.105C528.107 467.602 524.232 468.371 520.32 468.37ZM538.15 537.82C536.65 550.13 528.45 551.69 528.45 551.69L510.12 558.63C504.77 537.83 513 531.23 513 531.23L539.65 525.5L538.15 537.82ZM454.61 492.24C450.486 492.24 446.455 491.017 443.026 488.726C439.597 486.435 436.925 483.179 435.347 479.369C433.769 475.559 433.356 471.367 434.161 467.323C434.965 463.278 436.951 459.563 439.867 456.647C442.783 453.731 446.498 451.745 450.542 450.941C454.587 450.136 458.779 450.549 462.589 452.127C466.399 453.705 469.655 456.378 471.946 459.807C474.237 463.235 475.46 467.266 475.46 471.39C475.46 476.92 473.263 482.223 469.353 486.133C465.443 490.043 460.14 492.24 454.61 492.24ZM407.08 503.84C405.355 503.84 403.669 503.329 402.235 502.371C400.801 501.412 399.684 500.051 399.024 498.457C398.364 496.864 398.191 495.111 398.527 493.419C398.864 491.727 399.694 490.174 400.914 488.954C402.133 487.735 403.687 486.904 405.379 486.568C407.07 486.231 408.824 486.404 410.417 487.064C412.01 487.724 413.372 488.842 414.33 490.276C415.288 491.71 415.8 493.396 415.8 495.12C415.8 497.433 414.881 499.651 413.246 501.286C411.611 502.921 409.393 503.84 407.08 503.84ZM369.27 458.16C367.444 459.08 365.386 459.438 363.356 459.189C361.326 458.939 359.416 458.094 357.867 456.759C356.318 455.424 355.2 453.66 354.653 451.689C354.107 449.718 354.157 447.63 354.797 445.688C355.438 443.746 356.64 442.037 358.251 440.778C359.862 439.519 361.811 438.766 363.85 438.615C365.889 438.463 367.928 438.919 369.708 439.926C371.488 440.932 372.929 442.444 373.85 444.27C374.461 445.483 374.828 446.804 374.929 448.159C375.03 449.513 374.863 450.874 374.437 452.164C374.012 453.454 373.337 454.647 372.45 455.676C371.563 456.705 370.483 457.549 369.27 458.16ZM346.47 468.37C344.845 469.188 343.015 469.507 341.21 469.285C339.404 469.064 337.705 468.312 336.327 467.125C334.949 465.938 333.953 464.369 333.467 462.616C332.98 460.864 333.023 459.006 333.592 457.278C334.16 455.551 335.228 454.03 336.66 452.909C338.093 451.788 339.825 451.117 341.639 450.98C343.453 450.843 345.266 451.247 346.851 452.141C348.435 453.034 349.719 454.377 350.54 456C351.086 457.079 351.414 458.256 351.505 459.462C351.596 460.668 351.448 461.88 351.07 463.029C350.692 464.178 350.091 465.241 349.302 466.158C348.512 467.074 347.55 467.826 346.47 468.37ZM323.41 478C322.094 478.664 320.611 478.922 319.148 478.743C317.685 478.564 316.308 477.954 315.192 476.992C314.075 476.03 313.269 474.759 312.875 473.339C312.482 471.918 312.518 470.413 312.98 469.014C313.442 467.614 314.308 466.383 315.47 465.476C316.632 464.569 318.036 464.027 319.506 463.919C320.976 463.81 322.445 464.14 323.727 464.867C325.01 465.593 326.048 466.684 326.71 468C327.597 469.764 327.748 471.808 327.129 473.683C326.511 475.558 325.173 477.111 323.41 478ZM774.41 303.11H774.21C774.15 303.11 774.21 303.02 774.14 303.01C771.144 302.204 767.966 302.4 765.092 303.568C762.218 304.736 759.804 306.813 758.22 309.48C757.027 311.686 756.599 314.225 757 316.7L735.69 325.25L735.62 325.12L734.75 323.62C727.31 311 718.5 301.07 713.3 303.31C712.624 303.654 712.041 304.155 711.599 304.771C711.157 305.387 710.869 306.1 710.76 306.85C709.61 311.67 711.58 320.66 715.86 330.91C706.65 315.32 695.5 302.58 689.19 305.3C687.73 305.93 686.7 307.36 686.19 309.53C684.73 315.6 687.29 327.05 692.81 340.1C685.89 329.24 678.24 321.33 673.55 323.35C672.876 323.695 672.294 324.196 671.854 324.812C671.413 325.428 671.128 326.141 671.02 326.89C670.02 331.18 671.45 338.8 674.82 347.67C675.02 348.2 675.23 348.73 675.44 349.27C675.44 349.27 657.53 356.62 648.05 360.42L646.93 360.87C641.6 351.49 634.47 341.68 625.32 338.13C624.723 338.022 624.107 338.105 623.559 338.368C623.012 338.63 622.561 339.057 622.27 339.59L617 354.42C612.857 351.945 608.507 349.834 604 348.11C578.34 338.37 549.89 341.89 524.61 351.11C483.07 366.19 447.17 395.59 413.89 423.9L412.98 424.7C406.74 419.11 386.17 404.9 354.5 425.11C316.12 449.6 247.5 491.88 247.5 491.88C247.5 491.88 238.5 498.32 243.44 506.77C248.38 515.22 259.35 510.31 259.35 510.31L308.8 497.58C308.8 497.58 333.8 489.18 345.71 492.7C341.1 498.52 336.64 504.48 332.6 510.7C328.11 517.63 325.99 521.53 329.4 530.28V530.37C331.06 533.75 332.75 537.1 334.48 540.44C334.48 540.44 334.54 540.44 334.56 540.49C339.11 547.76 343.07 548.93 350.69 549.49C355.59 549.84 360.51 549.94 365.43 549.94C365.8 553.15 366.87 558.36 369.99 558.35C374.48 558.35 396.99 550.82 395.29 590.7C393.59 630.58 385 663.13 384.25 679.54C383.5 695.95 383.63 724.16 426.44 721.2C469.25 718.24 485.06 691 488.38 684.84C491.7 678.68 490.11 665.35 479.06 657.43C468.01 649.51 468.6 641 472 636.61C475.4 632.22 478.06 621.33 466.75 610.84C458.33 603.04 459.88 586.2 472.69 582.32C485.5 578.44 530 561.11 530 561.11C530 561.11 545.89 556.96 547.61 536.18C548.66 523.51 551.09 517.01 552.82 513.87C552.918 513.692 552.974 513.494 552.983 513.291C552.992 513.088 552.955 512.885 552.874 512.699C552.793 512.513 552.67 512.347 552.515 512.216C552.36 512.084 552.177 511.99 551.98 511.94C553.81 511.21 555.66 510.52 557.47 509.75L557.87 509.58C561.07 508.22 564.26 506.86 567.4 505.38C571.74 503.38 575.83 501.3 579.7 499.2L580.7 498.64C585.433 496.047 589.837 493.4 593.91 490.7L594.2 490.53L594.37 490.41L597.37 488.34L598.09 488.26V487.87C598.83 487.34 599.61 486.87 600.33 486.3C601.05 485.73 601.92 485.19 602.69 484.6C603.81 483.75 604.83 482.9 605.9 482.05C622.54 468.85 636.59 452.16 643.32 431.77C645.122 426.245 646.349 420.548 646.98 414.77L663.24 422.23C663.887 422.362 664.561 422.256 665.136 421.93C665.711 421.605 666.149 421.083 666.37 420.46C666.83 416.13 665.96 411.46 665.13 407.27C663.624 400.006 661.483 392.889 658.73 386L685.84 369.87L686.68 371.21C693.13 381.39 700.35 389.43 705.96 388.79C706.336 388.747 706.701 388.639 707.04 388.47C707.882 388.012 708.513 387.245 708.8 386.33C710.45 381.89 707.89 371.84 703.8 361.69C712.34 375.97 722.3 387.89 729.8 387.03C730.239 386.983 730.665 386.857 731.06 386.66C732.049 386.113 732.789 385.208 733.13 384.13C735.44 377.94 731.07 362.83 724.83 348.61C731.65 359.97 739.61 369.44 745.69 368.75C746.066 368.709 746.432 368.6 746.77 368.43C747.612 367.973 748.244 367.205 748.53 366.29C750.37 361.35 746.99 349.46 742.1 338.22L741.45 336.76L756 328.09L762 324.55C762.803 325.086 763.674 325.513 764.59 325.82C770.17 327.65 776.86 325.09 780.1 320.25C781.062 318.804 781.682 317.158 781.912 315.436C782.142 313.715 781.977 311.964 781.428 310.316C780.879 308.668 779.962 307.167 778.746 305.927C777.53 304.687 776.047 303.741 774.41 303.16V303.11Z" fill="white"/>
</g>
<defs>
<clipPath id="clip0_2_3432">
<rect width="1024" height="1024" fill="white"/>
</clipPath>
</defs>
</svg>

<svg xmlns="http://www.w3.org/2000/svg" viewBox="0 0 1024 1024">
   <circle cx="512" cy="512" r="512" style="fill:#cc2127"/>
   <path d="M520.32 468.37a29.79 29.79 0 1 1 29.79-29.79 29.78 29.78 0 0 1-29.79 29.79zm17.83 69.45c-1.5 12.31-9.7 13.87-9.7 13.87l-18.33 6.94c-5.35-20.8 2.88-27.4 2.88-27.4l26.65-5.73zm-83.54-45.58a20.85 20.85 0 1 1 20.85-20.85 20.85 20.85 0 0 1-20.85 20.85zm-47.53 11.6a8.72 8.72 0 1 1 8.72-8.72 8.72 8.72 0 0 1-8.72 8.72zm-37.81-45.68a10.34 10.34 0 1 1 4.58-13.89 10.34 10.34 0 0 1-4.58 13.89zm-22.8 10.21a9.2 9.2 0 1 1 4.07-12.37 9.2 9.2 0 0 1-4.07 12.37zM323.41 478a7.45 7.45 0 1 1 3.3-10 7.45 7.45 0 0 1-3.3 10zm451-174.89h-.2c-.06 0 0-.09-.07-.1a14.22 14.22 0 0 0-15.92 6.47 11.36 11.36 0 0 0-1.22 7.22l-21.31 8.55-.07-.13-.87-1.5c-7.44-12.62-16.25-22.55-21.45-20.31a4.74 4.74 0 0 0-2.54 3.54c-1.15 4.82.82 13.81 5.1 24.06-9.21-15.59-20.36-28.33-26.67-25.61-1.46.63-2.49 2.06-3 4.23-1.46 6.07 1.1 17.52 6.62 30.57-6.92-10.86-14.57-18.77-19.26-16.75a4.73 4.73 0 0 0-2.53 3.54c-1 4.29.43 11.91 3.8 20.78.2.53.41 1.06.62 1.6 0 0-17.91 7.35-27.39 11.15l-1.12.45c-5.33-9.38-12.46-19.19-21.61-22.74a2.89 2.89 0 0 0-3.05 1.46L617 354.42a83.58 83.58 0 0 0-13-6.31c-25.66-9.74-54.11-6.22-79.39 3-41.54 15.08-77.44 44.48-110.72 72.79l-.91.8c-6.24-5.59-26.81-19.8-58.48.41-38.38 24.49-107 66.77-107 66.77s-9 6.44-4.06 14.89 15.91 3.54 15.91 3.54l49.45-12.73s25-8.4 36.91-4.88c-4.61 5.82-9.07 11.78-13.11 18-4.49 6.93-6.61 10.83-3.2 19.58v.09c1.66 3.38 3.35 6.73 5.08 10.07 0 0 .06 0 .08.05 4.55 7.27 8.51 8.44 16.13 9 4.9.35 9.82.45 14.74.45.37 3.21 1.44 8.42 4.56 8.41 4.49 0 27-7.53 25.3 32.35s-10.29 72.43-11.04 88.84-.62 44.62 42.19 41.66 58.62-30.2 61.94-36.36 1.73-19.49-9.32-27.41S468.6 641 472 636.61s6.06-15.28-5.25-25.77c-8.42-7.8-6.87-24.64 5.94-28.52S530 561.11 530 561.11s15.89-4.15 17.61-24.93c1.05-12.67 3.48-19.17 5.21-22.31a1.33 1.33 0 0 0-.84-1.93c1.83-.73 3.68-1.42 5.49-2.19l.4-.17c3.2-1.36 6.39-2.72 9.53-4.2 4.34-2 8.43-4.08 12.3-6.18l1-.56q7.1-3.89 13.21-7.94l.29-.17.17-.12 3-2.07.72-.08v-.39c.74-.53 1.52-1 2.24-1.57s1.59-1.11 2.36-1.7c1.12-.85 2.14-1.7 3.21-2.55 16.64-13.2 30.69-29.89 37.42-50.28a84.35 84.35 0 0 0 3.66-17l16.26 7.46a2.74 2.74 0 0 0 3.13-1.77c.46-4.33-.41-9-1.24-13.19a126.52 126.52 0 0 0-6.4-21.27l27.11-16.13.84 1.34c6.45 10.18 13.67 18.22 19.28 17.58a3.25 3.25 0 0 0 1.08-.32 3.7 3.7 0 0 0 1.76-2.14c1.65-4.44-.91-14.49-5-24.64 8.54 14.28 18.5 26.2 26 25.34a3.71 3.71 0 0 0 1.26-.37 4.41 4.41 0 0 0 2.07-2.53c2.31-6.19-2.06-21.3-8.3-35.52 6.82 11.36 14.78 20.83 20.86 20.14a3.17 3.17 0 0 0 1.08-.32 3.69 3.69 0 0 0 1.76-2.14c1.84-4.94-1.54-16.83-6.43-28.07l-.65-1.46 14.55-8.67 6-3.54a10.94 10.94 0 0 0 2.59 1.27c5.58 1.83 12.27-.73 15.51-5.57a11.42 11.42 0 0 0-5.69-17.09z" style="fill:#fff"/>
</svg>
